img/svg-icons/user.svg

<svg xmlns="http://www.w3.org/2000/svg" id="user" viewBox="0 0 57.7 57.7"><path d="M0 0v57.7h57.7V0H0zm55.8 55.8H1.9V1.9h53.9v53.9z"/><path d="M24.5 46.3H12.6a16 16 0 0 1 4.7-9.6 16.09 16.09 0 0 1 11.5-4.8 16.46 16.46 0 0 1 15.1 10l1.7-.8a18.1 18.1 0 0 0-13-10.8 10.75 10.75 0 1 0-7.7 0 18.08 18.08 0 0 0-14.4 17.9h14v-1.9zm-2-19.8a9.27 9.27 0 0 1-2.6-6.3 8.88 8.88 0 1 1 2.6 6.3z"/></svg>

<svg id="user" xmlns="http://www.w3.org/2000/svg" width="57.7" height="57.7" viewBox="0 0 57.7 57.7"><title>user</title><path d="M0,0V57.7H57.7V0H0ZM55.8,55.8H1.9V1.9H55.8V55.8h0Z" transform="translate(0 0)"  /><path d="M24.5,46.3H12.6a16,16,0,0,1,4.7-9.6,16.09,16.09,0,0,1,11.5-4.8,16.46,16.46,0,0,1,15.1,10l1.7-.8a18.1,18.1,0,0,0-13-10.8,10.75,10.75,0,1,0-7.7,0A18.08,18.08,0,0,0,10.5,48.2h14V46.3h0Zm-2-19.8a9.27,9.27,0,0,1-2.6-6.3A8.88,8.88,0,1,1,22.5,26.5Z" transform="translate(0 0)"  /></svg>
